<?xml version="1.0" encoding="UTF-8"?>
<map version="1.10" tiledversion="1.11.2" orientation="orthogonal" renderorder="right-down" width="80" height="20" tilewidth="32" tileheight="32" infinite="0" nextlayerid="4" nextobjectid="106">
 <tileset firstgid="1" source="../assets/fulltile.tsx"/>
 <tileset firstgid="226" source="../../../Imagens/fulltile.tsx"/>
 <layer id="3" name="decorations" width="80" height="20">
  <data encoding="csv">
0,0,0,0,0,0,0,0,0,0,0,0,0,0,0,0,0,0,0,0,0,0,0,0,0,0,0,0,0,0,0,0,0,0,0,0,0,0,0,0,0,0,0,0,0,0,0,0,0,0,0,0,0,0,0,0,0,0,0,0,0,0,0,0,0,0,0,0,0,0,0,0,0,0,0,0,0,0,0,0,
0,0,0,0,0,0,0,0,0,0,0,0,0,0,0,0,0,0,0,0,0,0,0,0,0,0,0,0,0,0,0,0,0,0,0,0,0,0,0,0,0,0,0,0,0,0,0,0,0,0,0,0,0,0,0,0,0,0,0,0,0,0,0,0,0,0,0,0,0,0,0,0,0,0,0,0,0,0,0,0,
0,0,0,0,0,0,0,0,0,0,0,0,0,0,0,0,0,0,0,0,0,0,0,0,0,0,0,0,0,0,0,0,0,0,0,0,0,0,0,0,0,0,0,0,0,0,0,0,0,0,0,0,0,0,0,0,0,0,0,0,0,0,0,0,0,0,0,0,0,0,0,0,0,0,0,0,0,0,0,0,
0,0,0,0,0,0,0,0,0,0,0,0,0,0,0,0,0,0,0,0,0,0,0,0,0,0,0,0,0,0,0,0,0,0,0,0,0,0,0,0,0,0,0,0,0,0,0,0,0,0,0,0,0,0,0,0,0,0,0,0,0,0,0,0,0,0,0,0,0,0,0,0,0,0,0,0,0,0,0,0,
0,0,0,0,0,0,0,0,0,0,0,0,0,0,0,0,0,0,0,0,0,0,0,0,0,0,0,0,0,0,0,0,0,0,0,0,0,0,0,0,0,0,0,0,0,0,0,0,0,0,0,0,0,0,0,0,0,0,0,0,0,0,0,0,0,0,0,0,0,0,0,0,0,0,0,0,0,0,0,0,
0,0,0,0,0,0,0,0,0,0,0,0,0,0,0,0,0,0,0,0,0,0,0,0,0,0,0,0,0,0,0,0,0,0,0,0,0,0,0,0,0,0,0,0,0,0,0,0,0,0,0,0,0,0,0,0,0,0,0,0,0,0,0,0,0,0,0,0,0,0,0,0,0,0,0,0,0,0,0,0,
0,0,0,0,0,0,0,0,0,0,0,0,0,0,0,0,0,0,0,0,0,0,0,0,0,0,0,0,0,0,0,0,0,0,0,0,0,0,0,0,0,0,0,0,0,0,0,0,0,0,0,0,0,0,0,0,0,0,0,0,0,0,0,0,0,0,0,0,0,0,0,0,0,0,0,0,0,0,0,0,
0,0,0,0,0,0,0,0,0,0,0,0,0,0,0,0,0,0,0,0,0,0,0,0,0,0,0,0,0,0,0,0,0,0,0,0,0,0,0,0,0,0,0,0,0,0,0,0,0,0,0,0,0,0,0,0,0,0,0,0,0,0,0,0,0,0,0,0,0,0,0,0,0,0,0,0,0,0,0,0,
0,0,0,0,0,0,0,0,0,0,0,0,0,0,0,0,0,0,0,0,0,0,0,0,0,0,0,0,0,0,0,0,0,0,0,0,0,0,0,0,0,0,0,0,0,0,0,0,0,0,0,0,0,0,0,0,0,0,0,0,0,0,0,0,0,0,0,0,0,0,0,0,0,0,0,0,0,0,0,46,
0,0,0,0,0,0,0,0,0,0,0,0,0,0,0,0,0,0,0,0,0,0,0,0,0,0,0,0,0,0,0,0,0,0,0,0,0,0,0,0,0,0,0,0,0,0,0,0,0,0,0,0,0,0,0,0,0,0,0,0,0,0,0,0,0,0,0,0,0,0,0,0,0,0,0,0,0,0,0,271,
46,46,46,46,46,46,46,46,46,46,46,46,46,46,46,46,46,46,46,46,46,46,46,46,46,46,46,46,46,46,46,46,46,46,46,46,46,46,46,46,46,46,46,46,46,46,46,46,46,46,46,46,46,46,46,46,46,46,46,46,46,46,46,46,46,46,46,46,46,46,46,46,46,46,46,46,46,46,46,46,
46,46,46,46,46,46,46,46,46,46,46,46,46,46,46,46,46,46,46,46,46,46,46,46,46,46,46,46,46,46,46,46,46,46,46,46,46,46,46,46,46,46,46,46,46,46,46,46,46,46,46,46,46,46,46,46,46,46,46,46,46,46,46,46,46,46,46,46,46,46,46,46,46,46,46,46,46,46,46,46,
46,46,46,46,46,46,46,46,46,46,46,46,46,46,46,46,46,46,46,46,46,46,46,46,46,46,46,46,46,46,46,46,46,46,46,46,46,46,46,46,46,46,46,46,46,46,46,46,46,46,46,46,46,46,46,46,46,46,46,46,46,46,46,46,46,46,46,46,46,46,46,46,46,46,46,46,46,46,46,46,
46,46,46,46,46,46,46,46,46,46,46,46,46,46,46,46,46,46,46,46,46,46,46,46,46,46,46,46,46,46,46,46,46,46,46,46,46,46,46,46,46,46,46,46,46,46,46,46,46,46,46,46,46,46,46,46,46,46,46,46,46,46,46,46,46,46,46,46,46,46,46,46,46,46,46,46,46,46,46,46,
46,46,46,46,46,46,46,46,46,46,46,46,46,46,46,46,46,46,46,46,46,46,46,46,46,46,46,46,46,46,46,46,46,46,46,46,46,46,46,46,46,46,46,46,46,46,46,46,46,46,46,46,46,46,46,46,46,46,46,46,46,46,46,46,46,46,46,46,46,46,46,46,46,46,46,46,46,46,46,46,
46,46,46,46,46,46,46,46,46,46,46,46,46,46,46,46,46,46,46,46,46,46,46,46,46,46,46,46,46,46,46,46,46,46,46,46,46,46,46,46,46,46,46,46,46,46,46,46,46,46,46,46,46,46,46,46,46,46,46,46,46,46,46,46,46,46,46,46,46,46,46,46,46,46,46,46,46,46,46,46,
46,46,46,46,46,46,46,46,46,46,46,46,46,46,46,46,46,46,46,46,46,46,46,46,46,46,46,46,46,46,46,46,46,46,46,46,46,46,46,46,46,46,46,46,46,46,46,46,46,46,46,46,46,46,46,46,46,46,46,46,46,46,46,46,46,46,46,46,46,46,46,46,46,46,46,46,46,46,46,46,
46,46,46,46,46,46,46,46,46,46,46,46,46,46,46,46,46,46,46,46,46,46,46,46,46,46,46,46,46,46,46,46,46,46,46,46,46,46,46,46,46,46,46,46,46,46,46,46,46,46,46,46,46,46,46,46,46,46,46,46,46,46,46,46,46,46,46,46,46,46,46,46,46,46,46,46,46,46,46,46,
46,46,46,46,46,46,46,46,46,46,46,46,46,46,46,46,46,46,46,46,46,46,46,46,46,46,46,46,46,46,46,46,46,46,46,46,46,46,46,46,46,46,46,46,46,46,46,46,46,46,46,46,46,46,46,46,46,46,46,46,46,46,46,46,46,46,46,46,46,46,46,46,46,46,46,46,46,46,46,46,
46,46,46,46,46,46,46,46,46,46,46,46,46,46,46,46,46,46,46,46,46,46,46,46,46,46,46,46,46,46,46,46,46,46,46,46,46,46,46,46,46,46,46,46,46,46,46,46,46,46,46,46,46,46,46,46,46,46,46,46,46,46,46,46,46,46,46,46,46,46,46,46,46,46,46,46,46,46,46,46
</data>
 </layer>
 <objectgroup id="2" name="spawns">
  <object id="3" type="player_spawn" x="74.2115" y="258.478"/>
  <object id="4" type="door" x="2543.96" y="287.978">
   <properties>
    <property name="spawn_x" type="float" value="2"/>
    <property name="spawn_y" type="float" value="8"/>
    <property name="target" value="../map/challenge4.tmx"/>
   </properties>
  </object>
  <object id="5" type="screw_flathead" x="192.333" y="255.167"/>
  <object id="6" type="screw_flathead" x="353" y="255"/>
  <object id="7" type="screw_flathead" x="512" y="256.25"/>
  <object id="8" type="screw_flathead" x="672.333" y="256.333"/>
  <object id="9" type="screw_flathead" x="832.667" y="256"/>
  <object id="10" type="screw_flathead" x="991.5" y="256.5"/>
  <object id="11" type="screw_flathead" x="1152" y="256"/>
  <object id="12" type="screw_flathead" x="1312" y="256.5"/>
  <object id="13" type="screw_flathead" x="1471.5" y="254.5"/>
  <object id="14" type="screw_flathead" x="1631.5" y="256.5"/>
  <object id="15" type="screw_flathead" x="1791.33" y="256.667"/>
  <object id="16" type="screw_flathead" x="1952" y="255.333"/>
  <object id="17" type="screw_flathead" x="2113.33" y="256"/>
  <object id="18" type="screw_flathead" x="2272" y="254"/>
  <object id="19" type="screw_flathead" x="2434" y="255.333"/>
  <object id="20" type="door" x="174" y="352.5">
   <properties>
    <property name="spawn_x" type="float" value="2"/>
    <property name="spawn_y" type="float" value="8"/>
    <property name="target" value="../map/challenge3.tmx"/>
   </properties>
  </object>
  <object id="21" type="door" x="204.5" y="352.5">
   <properties>
    <property name="spawn_x" type="float" value="2"/>
    <property name="spawn_y" type="float" value="8"/>
    <property name="target" value="../map/challenge3.tmx"/>
   </properties>
  </object>
  <object id="22" type="door" x="335" y="350">
   <properties>
    <property name="spawn_x" type="float" value="2"/>
    <property name="spawn_y" type="float" value="8"/>
    <property name="target" value="../map/challenge3.tmx"/>
   </properties>
  </object>
  <object id="23" type="door" x="365.5" y="350">
   <properties>
    <property name="spawn_x" type="float" value="2"/>
    <property name="spawn_y" type="float" value="8"/>
    <property name="target" value="../map/challenge3.tmx"/>
   </properties>
  </object>
  <object id="24" type="door" x="495.5" y="351.5">
   <properties>
    <property name="spawn_x" type="float" value="2"/>
    <property name="spawn_y" type="float" value="8"/>
    <property name="target" value="../map/challenge3.tmx"/>
   </properties>
  </object>
  <object id="25" type="door" x="526" y="351.5">
   <properties>
    <property name="spawn_x" type="float" value="2"/>
    <property name="spawn_y" type="float" value="8"/>
    <property name="target" value="../map/challenge3.tmx"/>
   </properties>
  </object>
  <object id="26" type="door" x="657.5" y="353">
   <properties>
    <property name="spawn_x" type="float" value="2"/>
    <property name="spawn_y" type="float" value="8"/>
    <property name="target" value="../map/challenge3.tmx"/>
   </properties>
  </object>
  <object id="27" type="door" x="688" y="353">
   <properties>
    <property name="spawn_x" type="float" value="2"/>
    <property name="spawn_y" type="float" value="8"/>
    <property name="target" value="../map/challenge3.tmx"/>
   </properties>
  </object>
  <object id="28" type="door" x="814" y="351.5">
   <properties>
    <property name="spawn_x" type="float" value="2"/>
    <property name="spawn_y" type="float" value="8"/>
    <property name="target" value="../map/challenge3.tmx"/>
   </properties>
  </object>
  <object id="29" type="door" x="844.5" y="351.5">
   <properties>
    <property name="spawn_x" type="float" value="2"/>
    <property name="spawn_y" type="float" value="8"/>
    <property name="target" value="../map/challenge3.tmx"/>
   </properties>
  </object>
  <object id="30" type="door" x="974.5" y="350.5">
   <properties>
    <property name="spawn_x" type="float" value="2"/>
    <property name="spawn_y" type="float" value="8"/>
    <property name="target" value="../map/challenge3.tmx"/>
   </properties>
  </object>
  <object id="31" type="door" x="1007" y="350">
   <properties>
    <property name="spawn_x" type="float" value="2"/>
    <property name="spawn_y" type="float" value="8"/>
    <property name="target" value="../map/challenge3.tmx"/>
   </properties>
  </object>
  <object id="32" type="door" x="1137.5" y="345.5">
   <properties>
    <property name="spawn_x" type="float" value="2"/>
    <property name="spawn_y" type="float" value="8"/>
    <property name="target" value="../map/challenge3.tmx"/>
   </properties>
  </object>
  <object id="33" type="door" x="1168" y="345.5">
   <properties>
    <property name="spawn_x" type="float" value="2"/>
    <property name="spawn_y" type="float" value="8"/>
    <property name="target" value="../map/challenge3.tmx"/>
   </properties>
  </object>
  <object id="34" type="door" x="1296" y="350">
   <properties>
    <property name="spawn_x" type="float" value="2"/>
    <property name="spawn_y" type="float" value="8"/>
    <property name="target" value="../map/challenge3.tmx"/>
   </properties>
  </object>
  <object id="35" type="door" x="1326.5" y="350">
   <properties>
    <property name="spawn_x" type="float" value="2"/>
    <property name="spawn_y" type="float" value="8"/>
    <property name="target" value="../map/challenge3.tmx"/>
   </properties>
  </object>
  <object id="36" type="door" x="1455.5" y="350.5">
   <properties>
    <property name="spawn_x" type="float" value="2"/>
    <property name="spawn_y" type="float" value="8"/>
    <property name="target" value="../map/challenge3.tmx"/>
   </properties>
  </object>
  <object id="37" type="door" x="1486" y="350.5">
   <properties>
    <property name="spawn_x" type="float" value="2"/>
    <property name="spawn_y" type="float" value="8"/>
    <property name="target" value="../map/challenge3.tmx"/>
   </properties>
  </object>
  <object id="38" type="door" x="1619" y="351">
   <properties>
    <property name="spawn_x" type="float" value="2"/>
    <property name="spawn_y" type="float" value="8"/>
    <property name="target" value="../map/challenge3.tmx"/>
   </properties>
  </object>
  <object id="39" type="door" x="1649.5" y="351">
   <properties>
    <property name="spawn_x" type="float" value="2"/>
    <property name="spawn_y" type="float" value="8"/>
    <property name="target" value="../map/challenge3.tmx"/>
   </properties>
  </object>
  <object id="40" type="door" x="1863" y="350">
   <properties>
    <property name="spawn_x" type="float" value="2"/>
    <property name="spawn_y" type="float" value="8"/>
    <property name="target" value="../map/challenge3.tmx"/>
   </properties>
  </object>
  <object id="41" type="door" x="1838" y="348.5">
   <properties>
    <property name="spawn_x" type="float" value="2"/>
    <property name="spawn_y" type="float" value="8"/>
    <property name="target" value="../map/challenge3.tmx"/>
   </properties>
  </object>
  <object id="42" type="door" x="1937.5" y="353.5">
   <properties>
    <property name="spawn_x" type="float" value="2"/>
    <property name="spawn_y" type="float" value="8"/>
    <property name="target" value="../map/challenge3.tmx"/>
   </properties>
  </object>
  <object id="43" type="door" x="1968" y="353.5">
   <properties>
    <property name="spawn_x" type="float" value="2"/>
    <property name="spawn_y" type="float" value="8"/>
    <property name="target" value="../map/challenge3.tmx"/>
   </properties>
  </object>
  <object id="44" type="door" x="2097" y="351.5">
   <properties>
    <property name="spawn_x" type="float" value="2"/>
    <property name="spawn_y" type="float" value="8"/>
    <property name="target" value="../map/challenge3.tmx"/>
   </properties>
  </object>
  <object id="45" type="door" x="2127.5" y="351.5">
   <properties>
    <property name="spawn_x" type="float" value="2"/>
    <property name="spawn_y" type="float" value="8"/>
    <property name="target" value="../map/challenge3.tmx"/>
   </properties>
  </object>
  <object id="46" type="door" x="2258" y="352">
   <properties>
    <property name="spawn_x" type="float" value="2"/>
    <property name="spawn_y" type="float" value="8"/>
    <property name="target" value="../map/challenge3.tmx"/>
   </properties>
  </object>
  <object id="47" type="door" x="2288.5" y="352">
   <properties>
    <property name="spawn_x" type="float" value="2"/>
    <property name="spawn_y" type="float" value="8"/>
    <property name="target" value="../map/challenge3.tmx"/>
   </properties>
  </object>
  <object id="48" type="door" x="2419.5" y="352">
   <properties>
    <property name="spawn_x" type="float" value="2"/>
    <property name="spawn_y" type="float" value="8"/>
    <property name="target" value="../map/challenge3.tmx"/>
   </properties>
  </object>
  <object id="49" type="door" x="2450" y="352">
   <properties>
    <property name="spawn_x" type="float" value="2"/>
    <property name="spawn_y" type="float" value="8"/>
    <property name="target" value="../map/challenge3.tmx"/>
   </properties>
  </object>
  <object id="50" type="door" x="229.5" y="352.5">
   <properties>
    <property name="spawn_x" type="float" value="2"/>
    <property name="spawn_y" type="float" value="8"/>
    <property name="target" value="../map/challenge3.tmx"/>
   </properties>
  </object>
  <object id="51" type="door" x="260" y="352.5">
   <properties>
    <property name="spawn_x" type="float" value="2"/>
    <property name="spawn_y" type="float" value="8"/>
    <property name="target" value="../map/challenge3.tmx"/>
   </properties>
  </object>
  <object id="52" type="door" x="282" y="352.5">
   <properties>
    <property name="spawn_x" type="float" value="2"/>
    <property name="spawn_y" type="float" value="8"/>
    <property name="target" value="../map/challenge3.tmx"/>
   </properties>
  </object>
  <object id="53" type="door" x="312.5" y="352.5">
   <properties>
    <property name="spawn_x" type="float" value="2"/>
    <property name="spawn_y" type="float" value="8"/>
    <property name="target" value="../map/challenge3.tmx"/>
   </properties>
  </object>
  <object id="54" type="door" x="388" y="349">
   <properties>
    <property name="spawn_x" type="float" value="2"/>
    <property name="spawn_y" type="float" value="8"/>
    <property name="target" value="../map/challenge3.tmx"/>
   </properties>
  </object>
  <object id="55" type="door" x="418.5" y="349">
   <properties>
    <property name="spawn_x" type="float" value="2"/>
    <property name="spawn_y" type="float" value="8"/>
    <property name="target" value="../map/challenge3.tmx"/>
   </properties>
  </object>
  <object id="56" type="door" x="438.5" y="350">
   <properties>
    <property name="spawn_x" type="float" value="2"/>
    <property name="spawn_y" type="float" value="8"/>
    <property name="target" value="../map/challenge3.tmx"/>
   </properties>
  </object>
  <object id="57" type="door" x="469" y="350">
   <properties>
    <property name="spawn_x" type="float" value="2"/>
    <property name="spawn_y" type="float" value="8"/>
    <property name="target" value="../map/challenge3.tmx"/>
   </properties>
  </object>
  <object id="58" type="door" x="548.5" y="350.5">
   <properties>
    <property name="spawn_x" type="float" value="2"/>
    <property name="spawn_y" type="float" value="8"/>
    <property name="target" value="../map/challenge3.tmx"/>
   </properties>
  </object>
  <object id="59" type="door" x="579" y="350.5">
   <properties>
    <property name="spawn_x" type="float" value="2"/>
    <property name="spawn_y" type="float" value="8"/>
    <property name="target" value="../map/challenge3.tmx"/>
   </properties>
  </object>
  <object id="60" type="door" x="599" y="351">
   <properties>
    <property name="spawn_x" type="float" value="2"/>
    <property name="spawn_y" type="float" value="8"/>
    <property name="target" value="../map/challenge3.tmx"/>
   </properties>
  </object>
  <object id="61" type="door" x="629.5" y="351">
   <properties>
    <property name="spawn_x" type="float" value="2"/>
    <property name="spawn_y" type="float" value="8"/>
    <property name="target" value="../map/challenge3.tmx"/>
   </properties>
  </object>
  <object id="62" type="door" x="710.5" y="348.5">
   <properties>
    <property name="spawn_x" type="float" value="2"/>
    <property name="spawn_y" type="float" value="8"/>
    <property name="target" value="../map/challenge3.tmx"/>
   </properties>
  </object>
  <object id="63" type="door" x="741" y="348.5">
   <properties>
    <property name="spawn_x" type="float" value="2"/>
    <property name="spawn_y" type="float" value="8"/>
    <property name="target" value="../map/challenge3.tmx"/>
   </properties>
  </object>
  <object id="64" type="door" x="759.5" y="347">
   <properties>
    <property name="spawn_x" type="float" value="2"/>
    <property name="spawn_y" type="float" value="8"/>
    <property name="target" value="../map/challenge3.tmx"/>
   </properties>
  </object>
  <object id="65" type="door" x="790" y="347">
   <properties>
    <property name="spawn_x" type="float" value="2"/>
    <property name="spawn_y" type="float" value="8"/>
    <property name="target" value="../map/challenge3.tmx"/>
   </properties>
  </object>
  <object id="66" type="door" x="942.5" y="346">
   <properties>
    <property name="spawn_x" type="float" value="2"/>
    <property name="spawn_y" type="float" value="8"/>
    <property name="target" value="../map/challenge3.tmx"/>
   </properties>
  </object>
  <object id="67" type="door" x="919" y="344">
   <properties>
    <property name="spawn_x" type="float" value="2"/>
    <property name="spawn_y" type="float" value="8"/>
    <property name="target" value="../map/challenge3.tmx"/>
   </properties>
  </object>
  <object id="68" type="door" x="860.5" y="343">
   <properties>
    <property name="spawn_x" type="float" value="2"/>
    <property name="spawn_y" type="float" value="8"/>
    <property name="target" value="../map/challenge3.tmx"/>
   </properties>
  </object>
  <object id="69" type="door" x="891" y="343">
   <properties>
    <property name="spawn_x" type="float" value="2"/>
    <property name="spawn_y" type="float" value="8"/>
    <property name="target" value="../map/challenge3.tmx"/>
   </properties>
  </object>
  <object id="70" type="door" x="1029.5" y="347.5">
   <properties>
    <property name="spawn_x" type="float" value="2"/>
    <property name="spawn_y" type="float" value="8"/>
    <property name="target" value="../map/challenge3.tmx"/>
   </properties>
  </object>
  <object id="71" type="door" x="1060" y="347.5">
   <properties>
    <property name="spawn_x" type="float" value="2"/>
    <property name="spawn_y" type="float" value="8"/>
    <property name="target" value="../map/challenge3.tmx"/>
   </properties>
  </object>
  <object id="72" type="door" x="1082" y="345">
   <properties>
    <property name="spawn_x" type="float" value="2"/>
    <property name="spawn_y" type="float" value="8"/>
    <property name="target" value="../map/challenge3.tmx"/>
   </properties>
  </object>
  <object id="73" type="door" x="1112.5" y="345">
   <properties>
    <property name="spawn_x" type="float" value="2"/>
    <property name="spawn_y" type="float" value="8"/>
    <property name="target" value="../map/challenge3.tmx"/>
   </properties>
  </object>
  <object id="74" type="door" x="1189" y="346">
   <properties>
    <property name="spawn_x" type="float" value="2"/>
    <property name="spawn_y" type="float" value="8"/>
    <property name="target" value="../map/challenge3.tmx"/>
   </properties>
  </object>
  <object id="75" type="door" x="1219.5" y="346">
   <properties>
    <property name="spawn_x" type="float" value="2"/>
    <property name="spawn_y" type="float" value="8"/>
    <property name="target" value="../map/challenge3.tmx"/>
   </properties>
  </object>
  <object id="76" type="door" x="1244" y="347">
   <properties>
    <property name="spawn_x" type="float" value="2"/>
    <property name="spawn_y" type="float" value="8"/>
    <property name="target" value="../map/challenge3.tmx"/>
   </properties>
  </object>
  <object id="77" type="door" x="1274.5" y="347">
   <properties>
    <property name="spawn_x" type="float" value="2"/>
    <property name="spawn_y" type="float" value="8"/>
    <property name="target" value="../map/challenge3.tmx"/>
   </properties>
  </object>
  <object id="78" type="door" x="1348.5" y="350">
   <properties>
    <property name="spawn_x" type="float" value="2"/>
    <property name="spawn_y" type="float" value="8"/>
    <property name="target" value="../map/challenge3.tmx"/>
   </properties>
  </object>
  <object id="79" type="door" x="1379" y="350">
   <properties>
    <property name="spawn_x" type="float" value="2"/>
    <property name="spawn_y" type="float" value="8"/>
    <property name="target" value="../map/challenge3.tmx"/>
   </properties>
  </object>
  <object id="80" type="door" x="1403" y="351.5">
   <properties>
    <property name="spawn_x" type="float" value="2"/>
    <property name="spawn_y" type="float" value="8"/>
    <property name="target" value="../map/challenge3.tmx"/>
   </properties>
  </object>
  <object id="81" type="door" x="1429.5" y="352.5">
   <properties>
    <property name="spawn_x" type="float" value="2"/>
    <property name="spawn_y" type="float" value="8"/>
    <property name="target" value="../map/challenge3.tmx"/>
   </properties>
  </object>
  <object id="82" type="door" x="1508" y="349">
   <properties>
    <property name="spawn_x" type="float" value="2"/>
    <property name="spawn_y" type="float" value="8"/>
    <property name="target" value="../map/challenge3.tmx"/>
   </properties>
  </object>
  <object id="83" type="door" x="1538.5" y="349">
   <properties>
    <property name="spawn_x" type="float" value="2"/>
    <property name="spawn_y" type="float" value="8"/>
    <property name="target" value="../map/challenge3.tmx"/>
   </properties>
  </object>
  <object id="84" type="door" x="1564.5" y="348">
   <properties>
    <property name="spawn_x" type="float" value="2"/>
    <property name="spawn_y" type="float" value="8"/>
    <property name="target" value="../map/challenge3.tmx"/>
   </properties>
  </object>
  <object id="85" type="door" x="1595" y="348">
   <properties>
    <property name="spawn_x" type="float" value="2"/>
    <property name="spawn_y" type="float" value="8"/>
    <property name="target" value="../map/challenge3.tmx"/>
   </properties>
  </object>
  <object id="86" type="door" x="1672" y="350.5">
   <properties>
    <property name="spawn_x" type="float" value="2"/>
    <property name="spawn_y" type="float" value="8"/>
    <property name="target" value="../map/challenge3.tmx"/>
   </properties>
  </object>
  <object id="87" type="door" x="1702.5" y="350.5">
   <properties>
    <property name="spawn_x" type="float" value="2"/>
    <property name="spawn_y" type="float" value="8"/>
    <property name="target" value="../map/challenge3.tmx"/>
   </properties>
  </object>
  <object id="88" type="door" x="1724.5" y="349.5">
   <properties>
    <property name="spawn_x" type="float" value="2"/>
    <property name="spawn_y" type="float" value="8"/>
    <property name="target" value="../map/challenge3.tmx"/>
   </properties>
  </object>
  <object id="89" type="door" x="1755" y="349.5">
   <properties>
    <property name="spawn_x" type="float" value="2"/>
    <property name="spawn_y" type="float" value="8"/>
    <property name="target" value="../map/challenge3.tmx"/>
   </properties>
  </object>
  <object id="90" type="door" x="1785.5" y="349">
   <properties>
    <property name="spawn_x" type="float" value="2"/>
    <property name="spawn_y" type="float" value="8"/>
    <property name="target" value="../map/challenge3.tmx"/>
   </properties>
  </object>
  <object id="91" type="door" x="1816" y="349">
   <properties>
    <property name="spawn_x" type="float" value="2"/>
    <property name="spawn_y" type="float" value="8"/>
    <property name="target" value="../map/challenge3.tmx"/>
   </properties>
  </object>
  <object id="92" type="door" x="1883" y="350">
   <properties>
    <property name="spawn_x" type="float" value="2"/>
    <property name="spawn_y" type="float" value="8"/>
    <property name="target" value="../map/challenge3.tmx"/>
   </properties>
  </object>
  <object id="93" type="door" x="1913.5" y="350">
   <properties>
    <property name="spawn_x" type="float" value="2"/>
    <property name="spawn_y" type="float" value="8"/>
    <property name="target" value="../map/challenge3.tmx"/>
   </properties>
  </object>
  <object id="94" type="door" x="1993.5" y="353.5">
   <properties>
    <property name="spawn_x" type="float" value="2"/>
    <property name="spawn_y" type="float" value="8"/>
    <property name="target" value="../map/challenge3.tmx"/>
   </properties>
  </object>
  <object id="95" type="door" x="2024" y="353.5">
   <properties>
    <property name="spawn_x" type="float" value="2"/>
    <property name="spawn_y" type="float" value="8"/>
    <property name="target" value="../map/challenge3.tmx"/>
   </properties>
  </object>
  <object id="96" type="door" x="2045.5" y="353">
   <properties>
    <property name="spawn_x" type="float" value="2"/>
    <property name="spawn_y" type="float" value="8"/>
    <property name="target" value="../map/challenge3.tmx"/>
   </properties>
  </object>
  <object id="97" type="door" x="2076" y="353">
   <properties>
    <property name="spawn_x" type="float" value="2"/>
    <property name="spawn_y" type="float" value="8"/>
    <property name="target" value="../map/challenge3.tmx"/>
   </properties>
  </object>
  <object id="98" type="door" x="2149.5" y="351.5">
   <properties>
    <property name="spawn_x" type="float" value="2"/>
    <property name="spawn_y" type="float" value="8"/>
    <property name="target" value="../map/challenge3.tmx"/>
   </properties>
  </object>
  <object id="99" type="door" x="2180" y="351.5">
   <properties>
    <property name="spawn_x" type="float" value="2"/>
    <property name="spawn_y" type="float" value="8"/>
    <property name="target" value="../map/challenge3.tmx"/>
   </properties>
  </object>
  <object id="100" type="door" x="2204" y="352">
   <properties>
    <property name="spawn_x" type="float" value="2"/>
    <property name="spawn_y" type="float" value="8"/>
    <property name="target" value="../map/challenge3.tmx"/>
   </properties>
  </object>
  <object id="101" type="door" x="2234.5" y="352">
   <properties>
    <property name="spawn_x" type="float" value="2"/>
    <property name="spawn_y" type="float" value="8"/>
    <property name="target" value="../map/challenge3.tmx"/>
   </properties>
  </object>
  <object id="102" type="door" x="2312" y="351.5">
   <properties>
    <property name="spawn_x" type="float" value="2"/>
    <property name="spawn_y" type="float" value="8"/>
    <property name="target" value="../map/challenge3.tmx"/>
   </properties>
  </object>
  <object id="103" type="door" x="2342.5" y="351.5">
   <properties>
    <property name="spawn_x" type="float" value="2"/>
    <property name="spawn_y" type="float" value="8"/>
    <property name="target" value="../map/challenge3.tmx"/>
   </properties>
  </object>
  <object id="104" type="door" x="2365.5" y="351">
   <properties>
    <property name="spawn_x" type="float" value="2"/>
    <property name="spawn_y" type="float" value="8"/>
    <property name="target" value="../map/challenge3.tmx"/>
   </properties>
  </object>
  <object id="105" type="door" x="2396" y="351">
   <properties>
    <property name="spawn_x" type="float" value="2"/>
    <property name="spawn_y" type="float" value="8"/>
    <property name="target" value="../map/challenge3.tmx"/>
   </properties>
  </object>
 </objectgroup>
 <layer id="1" name="blocks" width="80" height="20">
  <data encoding="csv">
13,5,5,5,5,5,5,5,5,5,5,5,5,5,5,5,5,5,5,5,5,5,5,5,5,5,5,5,5,5,5,5,5,5,5,5,5,5,5,5,5,5,5,5,5,5,5,5,5,5,5,5,5,5,5,5,5,5,5,5,5,5,5,5,5,5,5,5,5,5,5,5,5,5,5,5,5,5,5,15,
13,0,0,0,0,0,0,0,0,0,0,0,0,0,0,0,0,0,0,0,0,0,0,0,0,0,0,0,0,0,0,0,0,0,0,0,0,0,0,0,0,0,0,0,0,0,0,0,0,0,0,0,0,0,0,0,0,0,0,0,0,0,0,0,0,0,0,0,0,0,0,0,0,0,0,0,0,0,0,15,
13,0,0,0,0,0,0,0,0,0,0,0,0,0,0,0,0,0,0,0,0,0,0,0,0,0,0,0,0,0,0,0,0,0,0,0,0,0,0,0,0,0,0,0,0,0,0,0,0,0,0,0,0,0,0,0,0,0,0,0,0,0,0,0,0,0,0,0,0,0,0,0,0,0,0,0,0,0,0,15,
13,0,0,0,0,0,0,0,0,0,0,0,0,0,0,0,0,0,0,0,0,0,0,0,0,0,0,0,0,0,0,0,0,0,0,0,0,0,0,0,0,0,0,0,0,0,0,0,0,0,0,0,0,0,0,0,0,0,0,0,0,0,0,0,0,0,0,0,0,0,0,0,0,0,0,0,0,0,0,15,
13,0,0,0,0,0,0,0,0,0,0,0,0,0,0,0,0,0,0,0,0,0,0,0,0,0,0,0,0,0,0,0,0,0,0,0,0,0,0,0,0,0,0,0,0,0,0,0,0,0,0,0,0,0,0,0,0,0,0,0,0,0,0,0,0,0,0,0,0,0,0,0,0,0,0,0,0,0,0,15,
13,0,0,0,0,0,0,0,0,0,0,0,0,0,0,0,0,0,0,0,0,0,0,0,0,0,0,0,0,0,0,0,0,0,0,0,0,0,0,0,0,0,0,0,0,0,0,0,0,0,0,0,0,0,0,0,0,0,0,0,0,0,0,0,0,0,0,0,0,0,0,0,0,0,0,0,0,0,0,15,
13,0,0,0,0,0,0,0,0,0,0,0,0,0,0,0,0,0,0,0,0,0,0,0,0,0,0,0,0,0,0,0,0,0,0,0,0,0,0,0,0,0,0,0,0,0,0,0,0,0,0,0,0,0,0,0,0,0,0,0,0,0,0,0,0,0,0,0,0,0,0,0,0,0,0,0,0,0,0,15,
13,0,0,0,0,0,0,0,0,0,0,0,0,0,0,0,0,0,0,0,0,0,0,0,0,0,0,0,0,0,0,0,0,0,0,0,0,0,0,0,0,0,0,0,0,0,0,0,0,0,0,0,0,0,0,0,0,0,0,0,0,0,0,0,0,0,0,0,0,0,0,0,0,0,0,0,0,0,0,15,
13,0,0,0,0,0,0,0,0,0,0,0,0,0,0,0,0,0,0,0,0,0,0,0,0,0,0,0,0,0,0,0,0,0,0,0,0,0,0,0,0,0,0,0,0,0,0,0,0,0,0,0,0,0,0,0,0,0,0,0,0,0,0,0,0,0,0,0,0,0,0,0,0,0,0,0,0,0,0,0,
13,0,0,0,0,0,0,0,0,0,0,0,0,0,0,0,0,0,0,0,0,0,0,0,0,0,0,0,0,0,0,0,0,0,0,0,0,0,0,0,0,0,0,0,0,0,0,0,0,0,0,0,0,0,0,0,0,0,0,0,0,0,0,0,0,0,0,0,0,0,0,0,0,0,0,0,0,0,0,0,
78,78,78,78,78,0,0,0,0,0,0,0,0,0,0,0,0,0,0,0,0,0,0,0,0,0,0,0,0,0,0,0,0,0,0,0,0,0,0,0,0,0,0,0,0,0,0,0,0,0,0,0,0,0,0,0,0,0,0,0,0,0,0,0,0,0,0,0,0,0,0,0,0,0,0,0,0,78,78,78,
0,0,0,0,0,0,0,0,0,0,0,0,0,0,0,0,0,0,0,0,0,0,0,0,0,0,0,0,0,0,0,0,0,0,0,0,0,0,0,0,0,0,0,0,0,0,0,0,0,0,0,0,0,0,0,0,0,0,0,0,0,0,0,0,0,0,0,0,0,0,0,0,0,0,0,0,0,0,0,0,
0,0,0,0,0,0,0,0,0,0,0,0,0,0,0,0,0,0,0,0,0,0,0,0,0,0,0,0,0,0,0,0,0,0,0,0,0,0,0,0,0,0,0,0,0,0,0,0,0,0,0,0,0,0,0,0,0,0,0,0,0,0,0,0,0,0,0,0,0,0,0,0,0,0,0,0,0,0,0,0,
0,0,0,0,0,0,0,0,0,0,0,0,0,0,0,0,0,0,0,0,0,0,0,0,0,0,0,0,0,0,0,0,0,0,0,0,0,0,0,0,0,0,0,0,0,0,0,0,0,0,0,0,0,0,0,0,0,0,0,0,0,0,0,0,0,0,0,0,0,0,0,0,0,0,0,0,0,0,0,0,
0,0,0,0,0,0,0,0,0,0,0,0,0,0,0,0,0,0,0,0,0,0,0,0,0,0,0,0,0,0,0,0,0,0,0,0,0,0,0,0,0,0,0,0,0,0,0,0,0,0,0,0,0,0,0,0,0,0,0,0,0,0,0,0,0,0,0,0,0,0,0,0,0,0,0,0,0,0,0,0,
0,0,0,0,0,0,0,0,0,0,0,0,0,0,0,0,0,0,0,0,0,0,0,0,0,0,0,0,0,0,0,0,0,0,0,0,0,0,0,0,0,0,0,0,0,0,0,0,0,0,0,0,0,0,0,0,0,0,0,0,0,0,0,0,0,0,0,0,0,0,0,0,0,0,0,0,0,0,0,0,
0,0,0,0,0,0,0,0,0,0,0,0,0,0,0,0,0,0,0,0,0,0,0,0,0,0,0,0,0,0,0,0,0,0,0,0,0,0,0,0,0,0,0,0,0,0,0,0,0,0,0,0,0,0,0,0,0,0,0,0,0,0,0,0,0,0,0,0,0,0,0,0,0,0,0,0,0,0,0,0,
0,0,0,0,0,0,0,0,0,0,0,0,0,0,0,0,0,0,0,0,0,0,0,0,0,0,0,0,0,0,0,0,0,0,0,0,0,0,0,0,0,0,0,0,0,0,0,0,0,0,0,0,0,0,0,0,0,0,0,0,0,0,0,0,0,0,0,0,0,0,0,0,0,0,0,0,0,0,0,0,
0,0,0,0,0,0,0,0,0,0,0,0,0,0,0,0,0,0,0,0,0,0,0,0,0,0,0,0,0,0,0,0,0,0,0,0,0,0,0,0,0,0,0,0,0,0,0,0,0,0,0,0,0,0,0,0,0,0,0,0,0,0,0,0,0,0,0,0,0,0,0,0,0,0,0,0,0,0,0,0,
0,0,0,0,0,0,0,0,0,0,0,0,0,0,0,0,0,0,0,0,0,0,0,0,0,0,0,0,0,0,0,0,0,0,0,0,0,0,0,0,0,0,0,0,0,0,0,0,0,0,0,0,0,0,0,0,0,0,0,0,0,0,0,0,0,0,0,0,0,0,0,0,0,0,0,0,0,0,0,0
</data>
 </layer>
</map>
