<?xml version="1.0" encoding="UTF-8"?>
<map version="1.10" tiledversion="1.11.2" orientation="orthogonal" renderorder="right-down" width="20" height="80" tilewidth="32" tileheight="32" infinite="0" nextlayerid="4" nextobjectid="58">
 <tileset firstgid="1" source="../assets/fulltile.tsx"/>
 <layer id="3" name="decorations" width="20" height="80">
  <data encoding="csv">
95,95,95,95,95,95,95,95,95,95,95,95,95,95,95,95,95,95,95,95,
95,95,95,95,95,95,95,95,95,95,95,95,95,95,95,95,95,95,95,95,
2,2,92,92,92,92,92,92,92,92,92,92,92,92,92,92,92,92,2,2,
2,2,2,2,2,2,2,2,2,2,2,2,2,2,2,2,2,2,2,2,
2,2,92,92,92,92,92,92,92,92,92,92,92,92,92,92,92,92,2,2,
95,95,95,95,95,95,95,95,95,95,95,95,95,95,95,95,95,95,95,95,
95,95,95,95,95,95,95,95,95,95,95,95,95,95,95,95,95,95,95,95,
95,95,95,95,95,95,95,95,95,95,95,95,95,95,95,95,95,95,95,95,
2,92,92,92,92,92,92,92,92,92,92,92,92,92,92,92,92,92,92,2,
2,2,2,2,2,2,2,2,2,2,2,2,2,2,2,2,2,2,2,2,
2,92,92,92,92,92,92,92,92,92,92,92,92,92,92,92,92,92,92,2,
95,95,95,95,95,95,95,95,95,95,95,95,95,95,95,95,95,95,95,95,
95,95,95,95,95,95,95,95,95,95,95,95,95,95,95,95,95,95,95,95,
95,95,95,95,95,95,95,95,95,95,95,95,95,95,95,95,95,95,95,95,
2,92,92,92,92,92,92,92,92,92,92,92,92,92,92,92,92,92,92,2,
2,2,2,2,2,2,2,2,2,2,2,2,2,2,2,2,2,2,2,2,
2,92,92,92,92,92,92,92,92,92,92,92,92,92,92,92,92,92,92,2,
95,95,95,95,95,95,95,95,95,95,95,95,95,95,95,95,95,95,95,95,
95,95,95,95,95,95,95,95,95,95,95,95,95,95,95,95,95,95,95,95,
95,95,95,95,95,95,95,95,95,95,95,95,95,95,95,95,95,95,95,95,
94,94,94,94,94,94,94,94,94,94,94,94,94,94,94,94,94,94,94,94,
94,94,94,94,94,94,94,94,94,94,94,94,94,94,94,94,94,94,94,94,
2,92,92,92,92,92,92,92,92,92,92,92,92,92,92,92,92,92,92,2,
2,2,2,2,2,2,2,2,2,2,2,2,2,2,2,2,2,2,2,2,
2,92,92,92,92,92,92,92,92,92,92,92,92,92,92,92,92,92,92,2,
94,94,94,94,94,94,94,94,94,94,94,94,94,94,94,94,94,94,94,94,
94,94,94,94,94,94,94,94,94,94,94,94,94,94,94,94,94,94,94,94,
94,94,94,94,94,94,94,94,94,94,94,94,94,94,94,94,94,94,94,94,
2,92,92,92,92,92,92,92,92,92,92,92,92,92,92,92,92,92,92,2,
2,2,2,2,2,2,2,2,2,2,2,2,2,2,2,2,2,2,2,2,
2,92,92,92,92,92,92,92,92,92,92,92,92,92,92,92,92,92,92,2,
94,94,94,94,94,94,94,94,94,94,94,94,94,94,94,94,94,94,94,94,
94,94,94,94,94,94,94,94,94,94,94,94,94,94,94,94,94,94,94,94,
94,94,94,94,94,94,94,94,94,94,94,94,94,94,94,94,94,94,94,94,
2,92,92,92,92,92,92,92,92,92,92,92,92,92,92,92,92,92,92,2,
2,2,2,2,2,2,2,2,2,2,2,2,2,2,2,2,2,2,2,2,
2,92,92,92,92,92,92,92,92,92,92,92,92,92,92,92,92,92,92,2,
94,94,94,94,94,94,94,94,94,94,94,94,94,94,94,94,94,94,94,94,
94,94,94,94,94,94,94,94,94,94,94,94,94,94,94,94,94,94,94,94,
94,94,94,94,94,94,94,94,94,94,94,94,94,94,94,94,94,94,94,94,
41,41,41,41,41,41,41,41,41,41,41,41,41,41,41,41,41,41,41,41,
41,41,41,41,41,41,41,41,41,41,41,41,41,41,41,41,41,41,41,41,
2,92,92,92,92,92,92,92,92,92,92,92,92,92,92,92,92,92,92,2,
2,2,2,2,2,2,2,2,2,2,2,2,2,2,2,2,2,2,2,2,
2,92,92,92,92,92,92,92,92,92,92,92,92,92,92,92,92,92,92,2,
41,41,41,41,41,41,41,41,41,41,41,41,41,41,41,41,41,41,41,41,
41,41,41,41,41,41,41,41,41,41,41,41,41,41,41,41,41,41,41,41,
41,41,41,41,41,41,41,41,41,41,41,41,41,41,41,41,41,41,41,41,
2,92,92,92,92,92,92,92,92,92,92,92,92,92,92,92,92,92,92,2,
2,2,2,2,2,2,2,2,2,2,2,2,2,2,2,2,2,2,2,2,
2,92,92,92,92,92,92,92,92,92,92,92,92,92,92,92,92,92,92,2,
41,41,41,41,41,41,41,41,41,41,41,41,41,41,41,41,41,41,41,41,
41,41,41,41,41,41,41,41,41,41,41,41,41,41,41,41,41,41,41,41,
41,41,41,41,41,41,41,41,41,41,41,41,41,41,41,41,41,41,41,41,
2,92,92,92,92,92,92,92,92,92,92,92,92,92,92,92,92,92,92,2,
2,2,2,2,2,2,2,2,2,2,2,2,2,2,2,2,2,2,2,2,
2,92,92,92,92,92,92,92,92,92,92,92,92,92,92,92,92,92,92,2,
41,41,41,41,41,41,41,41,41,41,41,41,41,41,41,41,41,41,41,41,
41,41,41,41,41,41,41,41,41,41,41,41,41,41,41,41,41,41,41,41,
41,41,41,41,41,41,41,41,41,41,41,41,41,41,41,41,41,41,41,41,
96,96,96,96,96,96,96,96,96,96,96,96,96,96,96,96,96,96,96,96,
96,96,96,96,96,96,96,96,96,96,96,96,96,96,96,96,96,96,96,96,
2,92,92,92,92,92,92,92,92,92,92,92,92,92,92,92,92,92,92,2,
2,2,2,2,2,2,2,2,2,2,2,2,2,2,2,2,2,2,2,2,
2,92,92,92,92,92,92,92,92,92,92,92,92,92,92,92,92,92,92,2,
96,96,96,96,96,96,96,96,96,96,96,96,96,96,96,96,96,96,96,96,
96,96,96,96,96,96,96,96,96,96,96,96,96,96,96,96,96,96,96,96,
96,96,96,96,96,96,96,96,96,96,96,96,96,96,96,96,96,96,96,96,
2,92,92,92,92,92,92,92,92,92,92,92,92,92,92,92,92,92,92,2,
2,2,2,2,2,2,2,2,2,2,2,2,2,2,2,2,2,2,2,2,
2,92,92,92,92,92,92,92,92,92,92,92,92,92,92,92,92,92,92,2,
96,96,96,96,96,96,96,96,96,96,96,96,96,96,96,96,96,96,96,96,
96,96,96,96,96,96,96,96,96,96,96,96,96,96,96,96,96,96,96,96,
96,96,96,96,96,96,96,96,96,96,96,96,96,96,96,96,96,96,96,96,
2,92,92,92,92,92,92,92,92,92,92,92,92,92,92,92,92,92,92,2,
2,2,2,2,2,2,2,2,2,2,2,2,2,2,2,2,2,2,2,2,
2,92,92,92,92,92,92,92,92,92,92,92,92,92,92,92,92,92,92,2,
96,96,96,96,96,96,96,96,96,96,96,96,96,96,96,96,96,96,96,96,
96,96,96,96,96,96,96,96,96,96,96,96,96,96,96,96,96,96,96,96,
46,46,46,46,46,46,46,46,46,46,46,46,46,46,46,46,46,46,46,46
</data>
 </layer>
 <objectgroup id="2" name="spawns">
  <object id="1" type="player_spawn" x="62.5" y="2492"/>
  <object id="5" type="screw_flathead" x="493" y="2217"/>
  <object id="6" type="screw_flathead" x="332" y="2135"/>
  <object id="7" type="screw_flathead" x="270" y="2105"/>
  <object id="8" type="screw_flathead" x="194" y="2085"/>
  <object id="9" type="screw_flathead" x="129" y="2058"/>
  <object id="10" type="screw_flathead" x="80" y="2032"/>
  <object id="11" type="screw_flathead" x="269" y="1945"/>
  <object id="12" type="screw_flathead" x="439" y="1890"/>
  <object id="13" type="screw_flathead" x="354" y="1915"/>
  <object id="14" type="enemy_spawn" x="531" y="1953"/>
  <object id="15" type="enemy_spawn" x="475" y="1956"/>
  <object id="16" type="screw_flathead" x="502" y="1866.5"/>
  <object id="17" type="screw_flathead" x="477.333" y="1776"/>
  <object id="18" type="screw_flathead" x="413.333" y="1738.67"/>
  <object id="19" type="screw_flathead" x="353.333" y="1694.67"/>
  <object id="20" type="screw_flathead" x="285.333" y="1657.33"/>
  <object id="21" type="screw_flathead" x="218.667" y="1620"/>
  <object id="22" type="screw_flathead" x="145.333" y="1584"/>
  <object id="23" type="screw_flathead" x="85.3333" y="1546.67"/>
  <object id="24" type="screw_flathead" x="140" y="1502.67"/>
  <object id="25" type="screw_flathead" x="193.333" y="1474.67"/>
  <object id="26" type="screw_flathead" x="257.333" y="1451.33"/>
  <object id="27" type="screw_flathead" x="323" y="1408.33"/>
  <object id="28" type="enemy_spawn" x="47" y="1128"/>
  <object id="29" type="enemy_spawn" x="86" y="1128"/>
  <object id="30" type="enemy_spawn" x="131" y="1127"/>
  <object id="31" type="enemy_spawn" x="192" y="1125"/>
  <object id="32" type="enemy_spawn" x="230" y="1123"/>
  <object id="33" type="enemy_spawn" x="378" y="1129"/>
  <object id="34" type="enemy_spawn" x="446" y="1120"/>
  <object id="35" type="enemy_spawn" x="496" y="1127"/>
  <object id="36" type="enemy_spawn" x="558" y="1133"/>
  <object id="37" type="enemy_spawn" x="597" y="1128"/>
  <object id="38" type="enemy_spawn" x="391" y="821"/>
  <object id="39" type="enemy_spawn" x="427" y="828"/>
  <object id="40" type="enemy_spawn" x="495" y="818"/>
  <object id="41" type="enemy_spawn" x="557" y="830"/>
  <object id="42" type="enemy_spawn" x="596" y="817"/>
  <object id="49" type="boss_spawn" x="502" y="208"/>
  <object id="50" type="screw_flathead" x="236" y="335"/>
  <object id="51" type="screw_flathead" x="337" y="338"/>
  <object id="52" type="screw_flathead" x="432" y="337"/>
  <object id="53" type="screw_flathead" x="338" y="399"/>
  <object id="54" type="screw_flathead" x="236" y="400"/>
  <object id="55" type="screw_flathead" x="48" y="396"/>
  <object id="56" type="screw_flathead" x="430" y="400"/>
  <object id="57" type="tooltip_phillips" x="574" y="2496"/>
 </objectgroup>
 <layer id="1" name="blocks" width="20" height="80">
  <data encoding="csv">
4,5,5,5,5,5,5,5,5,5,5,5,5,5,5,5,5,5,5,6,
13,0,0,0,0,0,0,0,0,0,0,0,0,0,0,0,0,0,0,15,
13,0,0,0,0,0,0,0,0,0,0,0,0,0,0,0,0,0,0,15,
13,0,0,0,0,0,0,0,0,0,0,0,0,0,0,0,0,0,0,15,
13,0,0,0,0,0,0,0,0,0,0,0,0,0,0,0,0,0,0,15,
13,0,0,0,0,0,0,0,0,0,0,0,0,0,0,0,0,0,0,15,
13,0,0,0,0,0,0,0,0,0,0,0,0,0,0,0,0,0,0,15,
13,0,0,0,0,0,0,0,0,0,0,0,0,0,0,0,0,0,0,15,
13,0,0,0,0,0,0,0,0,0,0,0,0,0,0,0,0,0,0,15,
13,0,0,0,0,0,0,0,0,0,0,0,0,0,0,0,0,0,0,15,
13,0,0,18,18,0,0,0,0,0,0,0,0,0,0,0,18,18,0,15,
13,0,0,0,0,18,0,0,0,0,0,0,0,0,0,18,0,0,0,15,
13,0,0,0,0,0,0,0,0,0,0,0,0,0,0,0,0,0,0,15,
13,78,0,0,0,0,0,0,0,0,0,0,0,0,0,0,0,0,78,15,
13,18,18,18,18,18,18,18,18,18,18,18,18,18,18,18,18,18,18,15,
13,0,0,0,0,0,0,0,0,0,0,0,0,0,0,0,0,0,0,15,
13,0,0,0,0,0,18,0,0,0,0,0,18,0,0,0,0,0,0,15,
13,0,0,0,0,0,18,0,0,0,0,0,18,0,0,0,0,0,0,15,
13,0,0,0,0,0,18,0,0,0,0,0,18,0,0,0,0,0,0,15,
13,0,0,0,0,0,0,0,0,0,0,0,0,0,0,0,0,0,0,15,
13,18,18,18,18,18,18,18,18,18,18,18,18,18,18,18,18,18,18,15,
13,0,0,0,0,0,0,0,0,0,0,0,0,0,0,0,0,0,0,15,
13,0,0,0,0,0,0,0,0,0,0,0,0,0,0,0,0,0,0,15,
13,0,0,18,18,18,0,0,0,0,0,0,0,0,0,0,0,0,0,15,
13,0,0,0,0,0,0,0,0,0,0,0,0,0,0,0,0,0,0,15,
13,0,0,0,0,0,0,0,0,0,0,0,0,0,0,0,0,0,0,15,
13,0,0,0,0,0,0,0,18,18,18,0,0,0,0,0,0,0,0,15,
13,0,0,0,0,0,0,0,0,0,18,18,18,18,18,18,18,18,18,15,
13,0,0,0,0,0,0,0,0,0,0,0,0,0,0,0,0,0,0,15,
13,0,0,0,0,0,0,0,0,0,0,0,0,0,0,0,0,0,0,15,
13,0,0,0,0,0,0,0,0,0,0,0,18,0,0,0,0,0,0,15,
13,0,0,0,0,0,0,0,0,18,0,0,0,0,0,0,0,0,0,15,
13,0,0,18,18,18,0,0,0,0,0,0,0,0,0,0,0,0,0,15,
13,0,0,0,0,0,0,0,0,0,0,0,0,0,0,0,0,0,0,15,
13,0,0,0,0,0,0,0,0,0,0,0,0,0,0,0,0,0,0,15,
13,0,0,0,0,0,0,0,0,0,0,0,0,0,0,0,0,0,0,15,
13,18,18,18,18,18,18,18,18,0,0,18,18,18,18,18,18,18,18,15,
13,0,0,0,0,0,0,0,0,0,0,0,0,0,0,0,0,0,0,15,
13,0,0,0,0,0,0,0,0,0,0,0,0,0,0,0,0,0,0,15,
13,18,0,18,0,0,0,0,0,0,0,0,0,0,18,0,0,0,18,15,
13,0,0,0,0,0,0,0,0,0,0,0,0,0,0,0,0,0,0,15,
13,0,0,0,0,0,0,0,0,0,0,0,0,0,0,0,0,0,0,15,
13,78,78,78,78,78,78,78,78,18,18,78,78,78,78,78,78,78,78,15,
13,0,0,0,0,0,0,0,0,0,0,0,0,0,0,0,0,0,0,15,
13,0,0,0,0,0,0,0,0,0,0,0,0,0,0,0,0,0,0,15,
13,0,0,0,0,0,0,0,0,0,0,0,0,0,0,0,0,0,0,15,
13,0,0,0,0,0,0,0,0,0,0,0,0,0,0,0,0,0,0,15,
13,0,0,0,0,0,0,0,0,0,0,0,0,0,0,0,0,0,0,15,
13,0,0,0,0,0,0,0,0,0,0,0,0,0,0,0,0,0,0,15,
13,0,0,0,0,0,0,0,0,0,0,0,0,0,0,0,0,0,0,15,
13,0,0,0,0,0,0,0,0,0,0,0,0,0,0,0,0,0,0,15,
13,0,0,0,0,0,0,0,0,0,0,0,0,0,0,0,0,0,0,15,
13,0,0,0,0,0,0,0,0,0,0,0,0,0,0,0,0,0,0,15,
13,0,0,0,0,0,0,0,0,0,0,0,0,0,0,0,0,0,0,15,
13,0,0,0,0,0,0,0,0,0,0,0,0,0,0,0,0,0,0,15,
13,0,0,0,0,0,0,0,0,0,0,0,0,0,0,0,0,0,0,15,
13,0,0,0,0,0,0,0,0,0,0,0,0,0,0,0,0,0,0,15,
13,78,78,78,78,78,78,78,78,78,78,78,78,18,18,18,18,78,78,15,
13,0,0,0,0,0,0,0,0,0,0,0,0,0,0,0,0,0,0,15,
13,0,0,0,0,0,0,0,0,0,0,0,0,0,0,0,0,0,0,15,
13,0,0,0,0,0,0,0,0,0,0,0,0,0,0,0,0,0,0,15,
13,0,0,0,0,0,0,0,0,0,0,0,0,0,0,0,0,0,0,15,
13,18,18,18,18,78,78,78,78,78,78,78,78,78,78,78,78,78,78,15,
13,0,0,0,0,0,0,0,0,0,0,0,0,0,0,0,0,0,0,15,
13,0,0,0,0,0,0,0,0,0,0,0,0,0,0,0,0,0,0,15,
13,0,0,0,0,0,0,0,0,0,0,0,0,0,0,0,0,0,0,15,
13,0,0,0,0,0,0,0,0,0,0,0,0,0,0,0,0,0,0,15,
13,0,0,0,0,0,0,0,0,0,0,0,0,0,0,0,0,0,0,15,
13,78,78,78,78,78,78,78,78,78,78,78,18,18,18,18,18,78,78,15,
13,0,0,0,0,0,0,0,0,0,0,0,0,0,0,0,0,0,0,15,
13,0,0,0,0,0,0,0,0,0,0,0,0,0,0,0,0,0,0,15,
13,0,0,0,0,0,0,0,0,0,0,78,0,0,0,0,0,0,0,15,
13,0,0,0,0,0,0,0,78,0,0,0,0,0,0,0,0,0,0,15,
13,0,0,0,0,0,0,0,0,0,0,0,0,0,0,0,0,0,0,15,
13,78,78,78,18,18,18,18,78,78,78,78,78,78,78,78,78,78,78,15,
13,0,0,0,78,0,0,0,0,0,0,0,0,0,0,0,0,0,0,15,
13,0,0,0,0,78,0,0,0,0,0,0,0,0,0,0,0,0,0,15,
13,0,0,0,0,0,0,78,0,0,0,0,0,0,0,0,0,0,0,15,
13,0,0,0,0,0,0,0,0,0,0,0,0,0,0,0,0,0,0,15,
22,23,23,23,23,23,23,23,23,23,23,23,23,23,23,23,23,23,23,24
</data>
 </layer>
</map>
