<?xml version="1.0" encoding="UTF-8"?>
<map version="1.10" tiledversion="1.11.2" orientation="orthogonal" renderorder="right-down" width="80" height="20" tilewidth="32" tileheight="32" infinite="0" nextlayerid="4" nextobjectid="35">
 <tileset firstgid="1" source="../assets/fulltile.tsx"/>
 <layer id="3" name="decorations" width="80" height="20">
  <data encoding="csv">
0,0,0,0,0,0,0,0,0,0,0,0,0,0,0,0,0,0,0,0,0,0,0,0,0,0,0,0,0,0,0,0,0,0,0,0,0,0,0,0,0,0,0,0,0,0,0,0,0,0,0,0,0,0,0,0,0,0,0,0,0,0,0,0,0,0,0,0,0,0,0,0,0,0,0,0,0,0,0,0,
0,0,0,0,0,0,0,0,0,0,0,0,0,0,0,0,0,0,0,0,0,0,0,0,0,0,0,0,0,0,0,0,0,0,0,0,0,0,0,0,0,0,0,0,0,0,0,0,0,0,0,0,0,0,0,0,0,0,0,0,0,0,0,0,0,0,0,0,0,0,0,0,0,0,0,0,0,0,0,0,
0,0,0,0,0,0,0,0,0,0,0,0,0,0,0,0,0,0,0,0,0,0,0,0,0,0,0,0,0,0,0,0,0,0,0,0,0,0,0,0,0,0,0,0,0,0,0,0,0,0,0,0,0,0,0,0,0,0,0,0,0,0,0,0,0,0,0,0,0,0,0,0,0,0,0,0,0,0,0,0,
0,0,0,0,0,0,0,0,0,0,0,0,0,0,0,0,0,0,0,0,0,0,0,0,0,0,0,0,0,0,0,0,0,0,0,0,0,0,0,0,0,0,0,0,0,0,0,0,0,0,0,0,0,0,0,0,0,0,0,0,0,0,0,0,0,0,0,0,0,0,0,0,0,0,0,0,0,0,0,0,
0,0,0,0,0,0,0,0,0,0,0,0,0,0,0,0,0,0,0,0,0,0,0,0,0,0,0,0,0,0,0,0,0,0,0,0,0,0,0,0,0,0,0,0,0,0,0,0,0,0,0,0,0,0,0,0,0,0,0,0,0,0,0,0,0,0,0,0,0,0,0,0,0,0,0,0,0,0,0,0,
0,0,0,0,0,0,0,0,0,0,0,0,0,0,0,0,0,0,0,0,0,0,0,0,0,0,0,0,0,0,0,0,0,0,0,0,0,0,0,0,0,0,0,0,0,0,0,0,0,0,0,0,0,0,0,0,0,0,0,0,0,0,0,0,0,0,0,0,0,0,0,0,0,0,0,0,0,0,0,0,
0,0,0,0,0,0,0,0,0,0,0,0,0,0,0,0,0,0,0,0,0,0,0,0,0,0,0,0,0,0,0,0,0,0,0,0,0,0,0,0,0,0,0,0,0,0,0,0,0,0,0,0,0,0,0,0,0,0,0,0,0,0,0,0,0,0,0,0,0,0,0,0,0,0,0,0,0,0,0,0,
0,0,0,0,0,0,0,0,0,0,0,0,0,0,0,0,0,0,0,0,0,0,0,0,0,0,0,0,0,0,0,0,0,0,0,0,0,0,0,0,0,0,0,0,0,0,0,0,0,0,0,0,0,0,0,0,0,0,0,0,0,0,0,0,0,0,0,0,0,0,0,0,0,0,0,0,0,0,0,0,
0,0,0,0,0,0,0,0,0,0,0,0,0,0,0,0,0,0,0,0,0,0,0,0,0,0,0,0,0,0,0,0,0,0,0,0,0,0,0,0,0,0,0,0,0,0,0,0,0,0,0,0,0,0,0,0,0,0,0,0,0,0,0,0,0,0,0,0,0,0,0,0,0,0,0,0,0,0,0,46,
0,0,0,0,0,0,0,0,0,0,0,0,0,0,0,0,0,0,0,0,0,0,0,0,0,0,0,0,0,0,0,0,0,0,0,0,0,0,0,0,0,0,0,0,0,0,0,0,0,0,0,0,0,0,0,0,0,0,0,0,0,0,0,0,0,0,0,0,0,0,0,0,0,0,0,0,0,0,0,46,
46,46,46,46,46,46,46,46,46,46,46,46,46,46,46,46,46,46,46,46,46,46,46,46,46,46,46,46,46,46,46,46,46,46,46,46,46,46,46,46,46,46,46,46,46,46,46,46,46,46,46,46,46,46,46,46,46,46,46,46,46,46,46,46,46,46,46,46,46,46,46,46,46,46,46,46,46,46,46,46,
46,46,46,46,46,46,46,46,46,46,46,46,46,46,46,46,46,46,46,46,46,46,46,46,46,46,46,46,46,46,46,46,46,46,46,46,46,46,46,46,46,46,46,46,46,46,46,46,46,46,46,46,46,46,46,46,46,46,46,46,46,46,46,46,46,46,46,46,46,46,46,46,46,46,46,46,46,46,46,46,
46,46,46,46,46,46,46,46,46,46,46,46,46,46,46,46,46,46,46,46,46,46,46,46,46,46,46,46,46,46,46,46,46,46,46,46,46,46,46,46,46,46,46,46,46,46,46,46,46,46,46,46,46,46,46,46,46,46,46,46,46,46,46,46,46,46,46,46,46,46,46,46,46,46,46,46,46,46,46,46,
46,46,46,46,46,46,46,46,46,46,46,46,46,46,46,46,46,46,46,46,46,46,46,46,46,46,46,46,46,46,46,46,46,46,46,46,46,46,46,46,46,46,46,46,46,46,46,46,46,46,46,46,46,46,46,46,46,46,46,46,46,46,46,46,46,46,46,46,46,46,46,46,46,46,46,46,46,46,46,46,
46,46,46,46,46,46,46,46,46,46,46,46,46,46,46,46,46,46,46,46,46,46,46,46,46,46,46,46,46,46,46,46,46,46,46,46,46,46,46,46,46,46,46,46,46,46,46,46,46,46,46,46,46,46,46,46,46,46,46,46,46,46,46,46,46,46,46,46,46,46,46,46,46,46,46,46,46,46,46,46,
46,46,46,46,46,46,46,46,46,46,46,46,46,46,46,46,46,46,46,46,46,46,46,46,46,46,46,46,46,46,46,46,46,46,46,46,46,46,46,46,46,46,46,46,46,46,46,46,46,46,46,46,46,46,46,46,46,46,46,46,46,46,46,46,46,46,46,46,46,46,46,46,46,46,46,46,46,46,46,46,
46,46,46,46,46,46,46,46,46,46,46,46,46,46,46,46,46,46,46,46,46,46,46,46,46,46,46,46,46,46,46,46,46,46,46,46,46,46,46,46,46,46,46,46,46,46,46,46,46,46,46,46,46,46,46,46,46,46,46,46,46,46,46,46,46,46,46,46,46,46,46,46,46,46,46,46,46,46,46,46,
46,46,46,46,46,46,46,46,46,46,46,46,46,46,46,46,46,46,46,46,46,46,46,46,46,46,46,46,46,46,46,46,46,46,46,46,46,46,46,46,46,46,46,46,46,46,46,46,46,46,46,46,46,46,46,46,46,46,46,46,46,46,46,46,46,46,46,46,46,46,46,46,46,46,46,46,46,46,46,46,
46,46,46,46,46,46,46,46,46,46,46,46,46,46,46,46,46,46,46,46,46,46,46,46,46,46,46,46,46,46,46,46,46,46,46,46,46,46,46,46,46,46,46,46,46,46,46,46,46,46,46,46,46,46,46,46,46,46,46,46,46,46,46,46,46,46,46,46,46,46,46,46,46,46,46,46,46,46,46,46,
46,46,46,46,46,46,46,46,46,46,46,46,46,46,46,46,46,46,46,46,46,46,46,46,46,46,46,46,46,46,46,46,46,46,46,46,46,46,46,46,46,46,46,46,46,46,46,46,46,46,46,46,46,46,46,46,46,46,46,46,46,46,46,46,46,46,46,46,46,46,46,46,46,46,46,46,46,46,46,46
</data>
 </layer>
 <objectgroup id="2" name="spawns">
  <object id="3" type="player_spawn" x="74.2115" y="258.478"/>
  <object id="4" type="door" x="2542.21" y="290.478">
   <properties>
    <property name="spawn_x" type="float" value="2"/>
    <property name="spawn_y" type="float" value="8"/>
    <property name="target" value="../map/challenge2.tmx"/>
   </properties>
  </object>
  <object id="5" type="door" x="2419.5" y="349">
   <properties>
    <property name="spawn_x" type="float" value="2"/>
    <property name="spawn_y" type="float" value="8"/>
    <property name="target" value="../map/challenge1.tmx"/>
   </properties>
  </object>
  <object id="6" type="door" x="2445" y="348.5">
   <properties>
    <property name="spawn_x" type="float" value="2"/>
    <property name="spawn_y" type="float" value="8"/>
    <property name="target" value="../map/challenge1.tmx"/>
   </properties>
  </object>
  <object id="7" type="door" x="2256.5" y="352">
   <properties>
    <property name="spawn_x" type="float" value="2"/>
    <property name="spawn_y" type="float" value="8"/>
    <property name="target" value="../map/challenge1.tmx"/>
   </properties>
  </object>
  <object id="8" type="door" x="2286" y="352">
   <properties>
    <property name="spawn_x" type="float" value="2"/>
    <property name="spawn_y" type="float" value="8"/>
    <property name="target" value="../map/challenge1.tmx"/>
   </properties>
  </object>
  <object id="9" type="door" x="2097" y="352">
   <properties>
    <property name="spawn_x" type="float" value="2"/>
    <property name="spawn_y" type="float" value="8"/>
    <property name="target" value="../map/challenge1.tmx"/>
   </properties>
  </object>
  <object id="10" type="door" x="2126.5" y="352.5">
   <properties>
    <property name="spawn_x" type="float" value="2"/>
    <property name="spawn_y" type="float" value="8"/>
    <property name="target" value="../map/challenge1.tmx"/>
   </properties>
  </object>
  <object id="11" type="door" x="1938" y="351">
   <properties>
    <property name="spawn_x" type="float" value="2"/>
    <property name="spawn_y" type="float" value="8"/>
    <property name="target" value="../map/challenge1.tmx"/>
   </properties>
  </object>
  <object id="12" type="door" x="1967.5" y="351">
   <properties>
    <property name="spawn_x" type="float" value="2"/>
    <property name="spawn_y" type="float" value="8"/>
    <property name="target" value="../map/challenge1.tmx"/>
   </properties>
  </object>
  <object id="13" type="door" x="1776.5" y="352">
   <properties>
    <property name="spawn_x" type="float" value="2"/>
    <property name="spawn_y" type="float" value="8"/>
    <property name="target" value="../map/challenge1.tmx"/>
   </properties>
  </object>
  <object id="14" type="door" x="1805.5" y="351.5">
   <properties>
    <property name="spawn_x" type="float" value="2"/>
    <property name="spawn_y" type="float" value="8"/>
    <property name="target" value="../map/challenge1.tmx"/>
   </properties>
  </object>
  <object id="15" type="door" x="1616.5" y="352.5">
   <properties>
    <property name="spawn_x" type="float" value="2"/>
    <property name="spawn_y" type="float" value="8"/>
    <property name="target" value="../map/challenge1.tmx"/>
   </properties>
  </object>
  <object id="16" type="door" x="1647" y="352.5">
   <properties>
    <property name="spawn_x" type="float" value="2"/>
    <property name="spawn_y" type="float" value="8"/>
    <property name="target" value="../map/challenge1.tmx"/>
   </properties>
  </object>
  <object id="17" type="door" x="1458" y="351.5">
   <properties>
    <property name="spawn_x" type="float" value="2"/>
    <property name="spawn_y" type="float" value="8"/>
    <property name="target" value="../map/challenge1.tmx"/>
   </properties>
  </object>
  <object id="18" type="door" x="1488" y="352">
   <properties>
    <property name="spawn_x" type="float" value="2"/>
    <property name="spawn_y" type="float" value="8"/>
    <property name="target" value="../map/challenge1.tmx"/>
   </properties>
  </object>
  <object id="19" type="door" x="1298" y="352">
   <properties>
    <property name="spawn_x" type="float" value="2"/>
    <property name="spawn_y" type="float" value="8"/>
    <property name="target" value="../map/challenge1.tmx"/>
   </properties>
  </object>
  <object id="20" type="door" x="1326.5" y="352">
   <properties>
    <property name="spawn_x" type="float" value="2"/>
    <property name="spawn_y" type="float" value="8"/>
    <property name="target" value="../map/challenge1.tmx"/>
   </properties>
  </object>
  <object id="21" type="door" x="1138.5" y="350">
   <properties>
    <property name="spawn_x" type="float" value="2"/>
    <property name="spawn_y" type="float" value="8"/>
    <property name="target" value="../map/challenge1.tmx"/>
   </properties>
  </object>
  <object id="22" type="door" x="1167.5" y="349">
   <properties>
    <property name="spawn_x" type="float" value="2"/>
    <property name="spawn_y" type="float" value="8"/>
    <property name="target" value="../map/challenge1.tmx"/>
   </properties>
  </object>
  <object id="23" type="door" x="977.5" y="351.5">
   <properties>
    <property name="spawn_x" type="float" value="2"/>
    <property name="spawn_y" type="float" value="8"/>
    <property name="target" value="../map/challenge1.tmx"/>
   </properties>
  </object>
  <object id="24" type="door" x="1007" y="352.5">
   <properties>
    <property name="spawn_x" type="float" value="2"/>
    <property name="spawn_y" type="float" value="8"/>
    <property name="target" value="../map/challenge1.tmx"/>
   </properties>
  </object>
  <object id="25" type="door" x="815" y="351">
   <properties>
    <property name="spawn_x" type="float" value="2"/>
    <property name="spawn_y" type="float" value="8"/>
    <property name="target" value="../map/challenge1.tmx"/>
   </properties>
  </object>
  <object id="26" type="door" x="848" y="351.5">
   <properties>
    <property name="spawn_x" type="float" value="2"/>
    <property name="spawn_y" type="float" value="8"/>
    <property name="target" value="../map/challenge1.tmx"/>
   </properties>
  </object>
  <object id="27" type="door" x="657.5" y="351.5">
   <properties>
    <property name="spawn_x" type="float" value="2"/>
    <property name="spawn_y" type="float" value="8"/>
    <property name="target" value="../map/challenge1.tmx"/>
   </properties>
  </object>
  <object id="28" type="door" x="688.5" y="351">
   <properties>
    <property name="spawn_x" type="float" value="2"/>
    <property name="spawn_y" type="float" value="8"/>
    <property name="target" value="../map/challenge1.tmx"/>
   </properties>
  </object>
  <object id="29" type="door" x="497.5" y="353">
   <properties>
    <property name="spawn_x" type="float" value="2"/>
    <property name="spawn_y" type="float" value="8"/>
    <property name="target" value="../map/challenge1.tmx"/>
   </properties>
  </object>
  <object id="30" type="door" x="529" y="352.5">
   <properties>
    <property name="spawn_x" type="float" value="2"/>
    <property name="spawn_y" type="float" value="8"/>
    <property name="target" value="../map/challenge1.tmx"/>
   </properties>
  </object>
  <object id="31" type="door" x="335.5" y="352">
   <properties>
    <property name="spawn_x" type="float" value="2"/>
    <property name="spawn_y" type="float" value="8"/>
    <property name="target" value="../map/challenge1.tmx"/>
   </properties>
  </object>
  <object id="32" type="door" x="368" y="351.5">
   <properties>
    <property name="spawn_x" type="float" value="2"/>
    <property name="spawn_y" type="float" value="8"/>
    <property name="target" value="../map/challenge1.tmx"/>
   </properties>
  </object>
  <object id="33" type="door" x="175.5" y="351.5">
   <properties>
    <property name="spawn_x" type="float" value="2"/>
    <property name="spawn_y" type="float" value="8"/>
    <property name="target" value="../map/challenge1.tmx"/>
   </properties>
  </object>
  <object id="34" type="door" x="209.5" y="351">
   <properties>
    <property name="spawn_x" type="float" value="2"/>
    <property name="spawn_y" type="float" value="8"/>
    <property name="target" value="../map/challenge1.tmx"/>
   </properties>
  </object>
 </objectgroup>
 <layer id="1" name="blocks" width="80" height="20">
  <data encoding="csv">
13,5,5,5,5,5,5,5,5,5,5,5,5,5,5,5,5,5,5,5,5,5,5,5,5,5,5,5,5,5,5,5,5,5,5,5,5,5,5,5,5,5,5,5,5,5,5,5,5,5,5,5,5,5,5,5,5,5,5,5,5,5,5,5,5,5,5,5,5,5,5,5,5,5,5,5,5,5,5,15,
13,0,0,0,0,0,0,0,0,0,0,0,0,0,0,0,0,0,0,0,0,0,0,0,0,0,0,0,0,0,0,0,0,0,0,0,0,0,0,0,0,0,0,0,0,0,0,0,0,0,0,0,0,0,0,0,0,0,0,0,0,0,0,0,0,0,0,0,0,0,0,0,0,0,0,0,0,0,0,15,
13,0,0,0,0,0,0,0,0,0,0,0,0,0,0,0,0,0,0,0,0,0,0,0,0,0,0,0,0,0,0,0,0,0,0,0,0,0,0,0,0,0,0,0,0,0,0,0,0,0,0,0,0,0,0,0,0,0,0,0,0,0,0,0,0,0,0,0,0,0,0,0,0,0,0,0,0,0,0,15,
13,0,0,0,0,0,0,0,0,0,0,0,0,0,0,0,0,0,0,0,0,0,0,0,0,0,0,0,0,0,0,0,0,0,0,0,0,0,0,0,0,0,0,0,0,0,0,0,0,0,0,0,0,0,0,0,0,0,0,0,0,0,0,0,0,0,0,0,0,0,0,0,0,0,0,0,0,0,0,15,
13,0,0,0,0,0,0,0,0,0,0,0,0,0,0,0,0,0,0,0,0,0,0,0,0,0,0,0,0,0,0,0,0,0,0,0,0,0,0,0,0,0,0,0,0,0,0,0,0,0,0,0,0,0,0,0,0,0,0,0,0,0,0,0,0,0,0,0,0,0,0,0,0,0,0,0,0,0,0,15,
13,0,0,0,0,0,0,0,0,0,0,0,0,0,0,0,0,0,0,0,0,0,0,0,0,0,0,0,0,0,0,0,0,0,0,0,0,0,0,0,0,0,0,0,0,0,0,0,0,0,0,0,0,0,0,0,0,0,0,0,0,0,0,0,0,0,0,0,0,0,0,0,0,0,0,0,0,0,0,15,
13,0,0,0,0,0,0,0,0,0,0,0,0,0,0,0,0,0,0,0,0,0,0,0,0,0,0,0,0,0,0,0,0,0,0,0,0,0,0,0,0,0,0,0,0,0,0,0,0,0,0,0,0,0,0,0,0,0,0,0,0,0,0,0,0,0,0,0,0,0,0,0,0,0,0,0,0,0,0,15,
13,0,0,0,0,0,0,0,0,0,0,0,0,0,0,0,0,0,0,0,0,0,0,0,0,0,0,0,0,0,0,0,0,0,0,0,0,0,0,0,0,0,0,0,0,0,0,0,0,0,0,0,0,0,0,0,0,0,0,0,0,0,0,0,0,0,0,0,0,0,0,0,0,0,0,0,0,0,0,15,
13,0,0,0,0,0,0,0,0,0,0,0,0,0,0,0,0,0,0,0,0,0,0,0,0,0,0,0,0,0,0,0,0,0,0,0,0,0,0,0,0,0,0,0,0,0,0,0,0,0,0,0,0,0,0,0,0,0,0,0,0,0,0,0,0,0,0,0,0,0,0,0,0,0,0,0,0,0,0,0,
13,0,0,0,0,0,0,0,0,0,0,0,0,0,0,0,0,0,0,0,0,0,0,0,0,0,0,0,0,0,0,0,0,0,0,0,0,0,0,0,0,0,0,0,0,0,0,0,0,0,0,0,0,0,0,0,0,0,0,0,0,0,0,0,0,0,0,0,0,0,0,0,0,0,0,0,0,0,0,0,
78,78,78,78,78,0,0,78,78,78,0,0,78,78,78,0,0,78,78,78,0,0,78,78,78,0,0,78,78,78,0,0,78,78,78,0,0,78,78,78,0,0,78,78,78,0,0,78,78,78,0,0,78,78,78,0,0,78,78,78,0,0,78,78,78,0,0,78,78,78,0,0,78,78,78,0,0,78,78,78,
0,0,0,0,0,0,0,0,0,0,0,0,0,0,0,0,0,0,0,0,0,0,0,0,0,0,0,0,0,0,0,0,0,0,0,0,0,0,0,0,0,0,0,0,0,0,0,0,0,0,0,0,0,0,0,0,0,0,0,0,0,0,0,0,0,0,0,0,0,0,0,0,0,0,0,0,0,0,0,0,
0,0,0,0,0,0,0,0,0,0,0,0,0,0,0,0,0,0,0,0,0,0,0,0,0,0,0,0,0,0,0,0,0,0,0,0,0,0,0,0,0,0,0,0,0,0,0,0,0,0,0,0,0,0,0,0,0,0,0,0,0,0,0,0,0,0,0,0,0,0,0,0,0,0,0,0,0,0,0,0,
0,0,0,0,0,0,0,0,0,0,0,0,0,0,0,0,0,0,0,0,0,0,0,0,0,0,0,0,0,0,0,0,0,0,0,0,0,0,0,0,0,0,0,0,0,0,0,0,0,0,0,0,0,0,0,0,0,0,0,0,0,0,0,0,0,0,0,0,0,0,0,0,0,0,0,0,0,0,0,0,
0,0,0,0,0,0,0,0,0,0,0,0,0,0,0,0,0,0,0,0,0,0,0,0,0,0,0,0,0,0,0,0,0,0,0,0,0,0,0,0,0,0,0,0,0,0,0,0,0,0,0,0,0,0,0,0,0,0,0,0,0,0,0,0,0,0,0,0,0,0,0,0,0,0,0,0,0,0,0,0,
0,0,0,0,0,0,0,0,0,0,0,0,0,0,0,0,0,0,0,0,0,0,0,0,0,0,0,0,0,0,0,0,0,0,0,0,0,0,0,0,0,0,0,0,0,0,0,0,0,0,0,0,0,0,0,0,0,0,0,0,0,0,0,0,0,0,0,0,0,0,0,0,0,0,0,0,0,0,0,0,
0,0,0,0,0,0,0,0,0,0,0,0,0,0,0,0,0,0,0,0,0,0,0,0,0,0,0,0,0,0,0,0,0,0,0,0,0,0,0,0,0,0,0,0,0,0,0,0,0,0,0,0,0,0,0,0,0,0,0,0,0,0,0,0,0,0,0,0,0,0,0,0,0,0,0,0,0,0,0,0,
0,0,0,0,0,0,0,0,0,0,0,0,0,0,0,0,0,0,0,0,0,0,0,0,0,0,0,0,0,0,0,0,0,0,0,0,0,0,0,0,0,0,0,0,0,0,0,0,0,0,0,0,0,0,0,0,0,0,0,0,0,0,0,0,0,0,0,0,0,0,0,0,0,0,0,0,0,0,0,0,
0,0,0,0,0,0,0,0,0,0,0,0,0,0,0,0,0,0,0,0,0,0,0,0,0,0,0,0,0,0,0,0,0,0,0,0,0,0,0,0,0,0,0,0,0,0,0,0,0,0,0,0,0,0,0,0,0,0,0,0,0,0,0,0,0,0,0,0,0,0,0,0,0,0,0,0,0,0,0,0,
0,0,0,0,0,0,0,0,0,0,0,0,0,0,0,0,0,0,0,0,0,0,0,0,0,0,0,0,0,0,0,0,0,0,0,0,0,0,0,0,0,0,0,0,0,0,0,0,0,0,0,0,0,0,0,0,0,0,0,0,0,0,0,0,0,0,0,0,0,0,0,0,0,0,0,0,0,0,0,0
</data>
 </layer>
</map>
